X: 1
T: Coleman's Cross
M: 4/4
L: 1/8
R: reel
K: Gmaj
edBA ~G3E | DEGB AE ~E2 | GEDB, DEGA | BA B/c/d eg~g2 |!
edBA GFGE | DEGB AE ~E2 | GEDB, DEGA | B/c/d gf e2 ef ||!
~g2 af gfed | Bd~d2 ed B/c/d | ~g2 af gfed | B/c/d gf e2 ef |!
~g2 gb ~f2 fd | egfd edBe | dBAF ~G2GA | BA B/c/d eg~g2 ||!
